X:1
T:Trio Sonata No. 2 in G minor from "12 Trio Sonata Op. 4 "
T: Trio Sonata No. 2 in g-minor
T:from " 12 Trio Sonata, Op.4 " Transcribed for 2 Recorders and B/C in c-minor from IMSLP#299301 PDF File
T:Arcangelo Corelli (1653 — 1713) Arr.ed by : Bob Reifsnyder
T:Public Domain
T:Public Domain
T:Public Domain
T:Public Domain
C:Arcangelo Corelli (1653 — 1713)
Z:Score
Z:Public Domain
%%score [ 1 2 3 ] { ( 4 5 7 ) | ( 6 8 ) }
L:1/8
Q:1/4=50
M:4/4
K:Eb
V:1 treble nm="Alto Rec." snm="A."
V:2 treble nm="Tenor Rec." snm="T."
V:3 bass nm="Viola da gamba" snm="Vla. d. g."
V:4 treble nm="Harpsichord" snm="Hch."
V:5 treble 
V:7 treble 
V:6 bass 
V:8 bass 
V:1
"^Grave""^1. Preludio"!mf! c4 a4 | g4 f4 | e4 d4- |!<(! d2 cB A2 G2!<)! | %4
 G2!>(! F2 !fermata!G4!>)! | !fermata!z8 | e4 c'4 | b4 a4 | g3 b c'2 z b | e'2 z e' c'/b/a/g/ f2 | %10
 e2!p! g4 ^f2 | b4- ba g2- | gc"_cresc."fe d e2 d | g2 f2 (eg) f/e/d/c/ |!mf! =B2 d'4 c'b | %15
 a=Bcd BG c2- | c2 =B2"_cresc." c4- | c4!f! (ag)(fe) | d2 e2 d4 | c8 |] %20
[M:4/4][Q:1/4=120]"^Allegro.""^2. Allemanda"!f! g | c'2 z g c'2 z g | c'd'e'd' c'=bc'g | %23
 z g(ag) z g(ag) | z gef gd g2- | ggc'b af a2- | afba ge e'2- | e'(d'/c'/) d'2- d'g c'2- | %28
 c'd'bc' _a ^f g2 | (g3 ^f) g3 :: e | b3 (a/g/) f2 z f |"_cresc." c'3 (b/a/) g2 z g | %33
"_cresc." d'3 c'/b/ =a2 z!f! d' | e'b =a2 ga b2- | bagc' af a2- | agfb ge!mf! (e'2- | %37
 e'd')!>(!g(c'- c'b)e(a- | ag)!>)!c'f =bd'(e'd') | z d'e'd' z gag | z gag z!f! gc'=b | %41
 a g2 f2 e' d'2 | c'g!p!c'b a g2 (f- | fe) d2 c3 z :| z || %45
[K:Eb][M:4/4][Q:1/4=50]"^Grave." e3 e =e2 f2 | g4 z4 | a3 a g4 | e2 z2 f2 z2 | g8 |] %50
[K:Eb][M:3/4][Q:3/4=50]"^Vivace.""^3. Corrente" .g2 .c2 .c'2 | .=b2 c'4 | .d'2 e'4 | (f'4 d'2) | %54
 .g2 .c'2 .b2 | .a2 .f2 .a2 | g4 .f2 | .e2 f4 |!>(! g6-!>)! |!mf! g2 c'2 b2 | a2 f2 a2- | %61
 a2 g2 f2 | e2 f2 g2- | g2 f4- | f2 e2 .d2 | .e2 d4 | .c2 .e2 .c2 | .d2 G4 | z2 g2 e2 | f2 B4 | %70
 z2 .a2 .f2 | .g2 c4 | z2 .g2 .=B2 | .c2 .c2 .d2 | g6 ::!f! .d2 .G2 .g2 | ((f2 e2) d2) | e6 | %78
 .d2 g4- | g2 f4- | f2 .e2 .d2 | c4 c2 | d2 e4- | e2 d4 | e2!p! g4- | g2 ^f4 | .g2"_cresc." b4- | %87
 b2 =a4 |!mf! .b2 .c'2 ._d'2 | .a2 g4 | .f2"_cresc." a4- | a2 .g2 .f2 | .e2!f! e4- | e2 .d2 .c2 | %94
 .=B2 g4- | g2 f4- | f2 .e2 .d2 | .e2 d4 | .c2 g4- | g2 .c2 f2- | f2 .e2 .d2 | .e2 d4 | %102
 .c2!p! g4- | g2 .c2 f2- | f2 .e2 .d2 | .e2 d4 | =e6 |] %107
V:2
 z2!mf! c4 f2- | f2 e4 d2- | d2 c4 =B2 |!<(! e2 g2 c2 =B2!<)! | c4!>(! !fermata!=B4!>)! | %5
 !fermata!z8 | z2 e4 a2- | a2 g4 f2- | fB e2 z c d2 | z ecB c/d/e e>d | e2 z2!p! =a4- | %11
 adgf (=e f2) e | a4- a"_cresc."g f2- | f e2 d- dc a2- | a!mf!dgf ef g2- | g2 f4 ed | %16
 e2 d2"_cresc." c4 | (cB)(AG)!f! (fe)(dc) | =B2 c4 B2 | c8 |][M:4/4] z | z!f! g c'2 z g c'2 | %22
 z gef gfed | (ed) z d (ed) z d | (ede)c =B2 z g | c'2 z g c2 z f | b2 z f B2 z g | %27
 f3 (g/f/) e3 e | d3 d' c'2 (b=a) | b3 =a g3 :: z | z fge dB f2 | z"_cresc." gaf =ec g2 | %33
 z"_cresc." =abg ^fd g2 |!f! (g3 ^f) g3 g/=f/ | =e f2 e f3 f/_e/ | d e2 d e3!mf! g | %37
 f2!>(! e2 d2 c2 | B2!>)! a2 g2 z =b | c'=b z b c'b z =e | f=e z e fe z!f! g | c'=bc'a b c'2 b | %42
 c'2 z!p! g c=BcA | (=B c2) B c3 z :| z ||[K:Eb][M:4/4] c3 c B2 A2 | c4 z4 | c3 c d4 | %48
 g2 z2 c2 z2 | =B8 |][K:Eb][M:3/4] z6 | .g2 .c2 .c'2 | .=b2 c'4 | (.d'2 .d2) .f2- | .f2 .=e2 g2- | %55
 g2 .c2 f2- | f2 .e2 .=B2 | c4 d2 |!>(! =B6!>)! |!mf! g6- | g2 f2 e2 | d2 d'4- | d'2 c'2 b2 | %63
 =a2 d'2 c'2 | =b2 c'4- | c'2 =b4 | c'6 | z2 g2 d2 | e2 z2 z2 | z2 b2 f2 | g2 z2 z2 | z2 .c'2 .g2 | %72
 .a2 z2 z2 | z2 .e2 .f2 | =B6 :: z6 | z6 |!f! g2 c2 c'2 | ((b2 a2) g2) | a6 | g2 b4- | b2 e2 a2- | %82
 a2 g2 f2 | g2 f4 | e4!p! (g2 | =a4) a2 | b4"_cresc." .b2 | c'4 c'2 |!mf! _d'2 f4- | f2 =e4 | f6 | %91
"_cresc." D2 d4- | d2!f! .c2 .B2 | .=A2 f4- | f2 .e2 .d2 | .c2 .d2 .c2 | =B2 c4- | c2 =B4 | c4 G2 | %99
 =A4 (A2 | .=B2) c4- | c2 =B4 | c4!p! (G2 | =A4) (A2 | .=B2) c4- | c2 =B4 | c6 |] %107
V:3
!mf! CB,A,G, F,EDC | =B,G,C_B, A,F,B,A, | G,E,A,G, F,D,G,G,, |!<(! CDE=E FF, G,2!<)! | %4
 A,4!>(! !fermata!G,4!>)! | !fermata!z8 | EDCB, A,G,F,E, | D,B,,E,D, C,C,D,B,, | %8
 E,F,G, G, A,F,B,G, | CB,/A,/ G,E, A,F,B,B, |!p! E,D,C,B,, C,=A,,D,D, | G,=A,B,G, C_DB,C | %12
 F,G,A,F, B,"_cresc."CA,B, | E,E(=A,=B, C)(E,F,F | G)G,!mf!=B,G, CDEC | F,G,A,F, G, z A, F, | %16
 G,F,G,G,"_cresc." CB,A,G, | A,G,F,=E,!f! F,3 F, | G,2 C2 G,4 | C8 |][M:4/4] z | z!f! CCC, z CCC, | %22
 z G,CD EDC=B, | (CG,) z =B, (CB,) z B, | (C=B,C)A, G,A,G,^F, | =E,2 z =E FGF_E | D3 D EFGE | %27
 B,3 =B, CDEC | ^F,2 G,2 C,D,E,C, | D,4 G,3 :: z | DB,EE, B,B, z F | =EB,"_cresc."FF, CC z G | %33
 .^F.D"_cresc.".G.G, .D.D z!f! .B, | .C.G,.D.D G,3 .G, | .C.F,.C.C F,3 .F, | %36
 .B,.E,.B,.B, E,3!mf! .E | B,2!>(! C2 G,2 A,2 | E,2!>)! F,2 G,2 z G, | CG, z G, CG, z C | %40
 F,C z C F,C z!f! =E | FGAF GCGG, | C3 =E, F,G,A,F, | G,C,G,G,, C,3 z :| z || %45
[K:Eb][M:4/4] A,3 A, G,2 F,2 | =E,4 z4 | F,3 F, =B,,4 | C,2 z2 A,2 z2 | G,8 |][K:Eb][M:3/4] z6 | %51
 z6 | G,2 C,2 C2- | C2 =B,4 | C4 C2 | F4 F2 | (=B,2 C2) .G,2 | A,6 |!>(! .G,2 .G2 .F2!>)! | %59
!mf! =E6 | F6 | =B,6 | C4 =E2 | F4 F2 | G2 =A2 F2 | G2 G,4 | C2 C4- | C2 =B,4 | C2 E4- | E2 D4 | %70
 E2 F4- | F2 =E4 | F2 G4 | A4 .A,2 | G,6 :: z2 z2!f! G,2 | =A,4 =B,2 | C4 C2 | G,4 G,2 | C4 D2 | %80
 E4 G,2 | A,4 A,2 | B,2 C2 A,2 | B,2 B,4 | E2!p! E2 B,2 | C2 D2 D2 | G,2"_cresc." G2 D2 | %87
 .E2 .F2 .F,2 |!mf! .B,2 .A,2 .B,2 | .C2 C4 | C4 F,2 | =B,,6 | C,6 |!f! F,6 | G,6 | A,4 F,2 | %96
 G,2 A,2 F,2 | .G,2 G,,4 | C,4 .E,2 | F,6 | .G,2 .A,2 (.F,2 | G,2) G,,4 | C,4!p! .E,2 | F,4 .F,2 | %104
 .G,2 .A,2 .F,2 | .G,2 G,,4 | C,6 |] %107
V:4
 ((G2 c4)) f2- | f2 e4 d2 | d2 c4 =B2 | e2 c4 =B2 | [Cc]4 !fermata![D=B]4 | !fermata!z8 | %6
 (_B2 e4) [fa-]2 | a2 g4 Bf- | f2 e2- e2 [Bd]2 | e3 (B F!>(!cA!>)!B) |!p! [GB]2 (c2 =AcAd | %11
 [DB]) z GB- B_A_dB | A z FA AGcA | G z cd e c2 d- | d z d=B eBce | ed (f4 ed) | %16
 [ce]2 [=Bd]2 cde =e | f=ef[cg] [ca] z z [c_e] | d2 (e2 d4) | c8 |][M:4/4]!f! .[ce] | %21
 .[eg].G.[EGc].[ce] .[eg].G.[EGc].[ce] | .[eg].[=Bd].[Gce].[GBd] .[Gc].[GBd].[Gce].[Gdg] | %23
!>(! ([ce][=Bd]) z [Gd]!>)! (ed) z [Gd] | (ede).f .[=Bdg] z z .[GBd] | .[Gcg]2 z .[Gc] c3 c | %26
 [FBf]2 z [FB] B2 z e | (e2 d).d (efg).e | [=Acd]2 [GBd]2 (e^fg=a) | .[Bdb]2 .[cd=a]2 [Bdg]3 :: %30
 .[GBe] | .[Bfb] z .[Beg] z .[Bdf]2 z .[Acf] | .[cgc'] z .[cfa] z .[c=eg]2 z .[Bdg] | %33
 .[d=ad'] z .[dgb] z .[d^fa]2 z .[dg] | .[ce].[Bdg] z .[=Ad^f] .[Bdg]2 z .[Bd] | %35
 .[Gc=e].[_Ac=f] z .[Gce] .[Acf]2 z .[Ac] | .[FBd].[GBe] z .[FBd] .[GBe]2 z .[gb] | %37
 e' d'2 c'2 b2 a- | a g2 f d2 z [DG_B] | ([Ec][D=B]) z [DGB] ([Ec][DB]) z [Gc=e] | %40
 ([Af][G=e]) z [Gce] ([Af][G=e]) z [cgb] | (a g2 f fe d2) | [EGc]2 z!p! [Gc] [FAc][D=B][Cc][Fd] | %43
 [G=B] (c2 B) [EGc]3 z :| z ||[K:Eb][M:4/4] [CEA]3 [CEAc] [C=EBc]2 [CFAc]2 | [CGc]4 z4 | %47
 [FAc]3 [FAcf] [Gdg]4 | [Gce]2 z2 [CFc]2 z2 | [DG=B]8 |][K:Eb][M:3/4] .[CE].[DF] .[EG]2 .[CE]2 | %51
 .[DF]2 .[EG]2 .[Ge]2 |!f! .[=Bd]2 .[Gc-e]2 .[EGc]2 | .[FAd]2 (g2 f2- | f2 =e2) [eg]2 | %55
 .[ca]2 [Ac]4 | (d2 (_e2) f2) | .[ce]2 .[Fcf]2 .[Fcd-]2 | .[=Bd]!>(!(.G.B.c)!>)!d.g | %59
!mf! (g2 c'2) _b2 | a4 .c2 | (d2 g2) f2 | .[Ge]2 .[df]2 .[cg]2 | (=a2 d2) a2 | %64
 .[=Bf]2 .[ce]2 .[cd_a]2 | .g.a.g.f.d.g | .c2 .G2 .[EGc]2 | [F_Ad]2 .Gdgf | e2 _B2 .[GBe]2 | %69
 .[Acf]2 Bf ba | g2 c2 [Acf]2 | .[B_dg]2 c.g.c'.b |!f! a2 .g.=d.e.f | .g.f .e2 f2 | [=Bdg]6 :: %75
!f! .[G=B].[=Ac] .[Bd]2 .[Bg]2 | f2 e2 [dg]2 | .[ce][df] .[eg]2 .[egc']2 | %78
 (([db]2 [c_a]2)) .[Bdg]2 | a4 a2 | [Bg]4 [dgb]2 | .[ce-c']2 .[Ace]2 .[cea]2 | %82
 .[Ad]2 .[Ge]2 .[cf]2 |!>(! [eg]2 [df]4!>)! |!p! [Be]2 .B.ed(g | g2 ^f)._e.d.c | .B2 .d.gf(b- | %87
 b2 =a)(._g.f.e) |!mf! ._d2 .f.e .[Fd]2 | .c.=d.=e.g.c.B | .A.B"_cresc.".c.f ([cfa-]2 | a2 g2) f2 | %92
 e2!f! .G.A.B.G | .=A.e.d.=B.c.A | .=B.f.e.c.d.B | .c.e.f.g.a.c | .=B.f.e.c.a.c | [ce]2 [=Bd]4 | %98
 [^Ec]2 .E.F.G._B | =A2 F.G.Ac | .=B2 .c2 [cd]2 | [ce]2 [=Bd]4 | [Gc]2 .E.F.G._B | =A2 .F.G.A.c | %104
 [G=B]2 c2 .[cd]2 | [ce]2 [=Bd]4 | [EGGc]6 |] %107
V:5
 (E4 [FA]2) [Ac]2 | x8 | x8 | x8 | x8 | x8 | x8 | x8 | x8 | x8 | x8 | x8 | x4 D2 x2 | x8 | x8 | %15
 x8 | x8 | c3 x2 z z x | x2 G2- F3 G | x8 |][M:4/4] x | x8 | x8 | x8 | x8 | x8 | x8 | x8 | x8 | %29
 x7 :: x | x8 | x8 | x8 | x8 | x8 | x8 | x8 | x8 | x8 | x8 | x8 | x8 | x8 :| x ||[K:Eb][M:4/4] x8 | %46
 x8 | x8 | x8 | x8 |][K:Eb][M:3/4] x6 | x6 | x6 | x6 | x6 | x6 | x6 | x6 | x6 | x6 | .c6 | x6 | %62
 x6 | x6 | x6 | x6 | x6 | x6 | x6 | x6 | x6 | x6 | x6 | x6 | x6 :: x6 | x6 | x6 | x6 | x6 | x6 | %81
 x6 | x6 | x6 | x6 | x6 | x6 | x6 | x6 | x6 | x6 | x6 | x6 | x6 | x6 | x6 | x6 | x6 | x6 | x6 | %100
 x6 | x6 | x6 | x6 | x6 | x6 | x6 |] %107
V:6
 CB,A,G, F,E,D,C, | =B,G,C_B, _A,F,B,A, | G,E,A,G, F,D,G,G,, | C,D,E,=E, F,2 G,2 | %4
 A,4 !fermata!G,4 | !fermata!z8 | EDCB, A,G,F,E, | D,B,,E,D, C,C,D,B,, | E,F,G,(G, A,)F,B,(G, | %9
 CB,/A,/ G,)E, A,F,B,B,, | E,D,C,B,, C,=A,,D,(D, | G,)=A,B,G, C_DB,C | F,G,_A,F, B,CA,B, | %13
 E,E(=A,=B, C)(E,F,F | G)G,(=B,G, CDEC | (F,G,))(A,F, G,GAF) | (GFGG,) C3 C- | C4 F z3 | %18
 [G,,G,]2 [C,,C,]2 [G,,G,]4 | C,8 |][M:4/4] z | z .C.C.C, z .C.C.C, | z .G,.C.D .E.D.C.=B, | %23
 (CG,) z =B, (CB,) z B, | (C=B,C).A, .G,.A,.G,.F, | =E,2 z .E, (F,G,F,)._E, | D,3 .D, (E,F,G,).E, | %27
 B,2 z =B, (CDE)C | ^F,2 G,2 C,D,E,C, | D,4 G,3 :: .E | .D.B,.E.E, .B,.B,, z .F | %32
 .=E.C.F.F, .C.C, z .G | .^F.D.G.G, .D.D, z .B, | .C.G,.D.D, G,3 .G, | .C.=F,.C.C, F,3 .F, | %36
 .B,.E,.B,.B,, E,3 .E | B2 G2- G2 E2- | E2 CD- D2 z G, | (CG,) z G, (CG,) z C | %40
 (FC) z C (FC) z =E | FGAF GCGG, | C3 =E, F,G,A,F, | G,C,G,G,, C,3 z :| z || %45
[K:Eb][M:4/4] [A,,A,]3 [A,,A,] [G,,G,]2 [F,,F,]2 | [=E,,=E,]4 z4 | [F,,F,]3 [F,,F,] [=B,,,=B,,]4 | %48
 [C,,C,]2 z2 [A,,A,]2 z2 | [G,,G,]8 |][K:Eb][M:3/4] z6 | z6 | .G,2 .C,2 C2- | C2 =B,4 | C4 .C,2 | %55
 F,4 F2 | (=B,2 C2) .G,2 | A,6 | .G,2 .G2 =F2 | E6 | F6 | =B,6 | C4 .=E,2 | F,4 F,2 | %64
 .G,2 _A,2 .F,2 | G,2 G,,4 | .C,2 C4 | C2 =B,4 | C2 E4 | E2 D4 | E2 F4- | F2 =E4 | F2 G4 | %73
 A4 .A,2 | G,6 :: z2 z2 (.G,2 | =A,4) .=B,2 | C4 .C,2 | G,4 .G2 | C4 D2 | E4 G,2 | A,4 .A,2 | %82
 .B,2 .C2 .A,2 | B,2 B,,4 | (.E,2 .E2) .B,2 | .C2 D2 .D,2 | .G,2 .G2 .D2 | .E2 .F2 .F,2 | %88
 .B,2 .A,2 .B,2 | .C2 [C,C]4 | [F,C]4 (.F2- | F2 G4 | G) z z2 z2 | F,6 | G,6 | A,4 .F,2 | %96
 .G,2 .A,2 F,2 | .G,2 G,,4 | C,4 .E,2 | F,6 | .G,2 .A,2 (.F,2 | .G,2) G,,4 | C,4 .E,2 | F,4 .F,2 | %104
 .G,2 .A,2 .F,2 | .G,2 G,,4 | C,6 |] %107
V:7
 x8 | d=BGc- cAF_B- | _BGEA- AFDG- | GGcG AF D2 | CD/E/ F2 G4 | x8 | (G4 [Ac]2) c2 | fdBe- eA- A2 | %8
 GA B2 cA FG- | G>F EG F2 F2 | .G2 [EG]4 [D^F]2 | x2 D2 =E F2 E | F x F_E x E2 D | E x F2 EG A2 | %14
 =B x G4 c2 | c=BcA B2 c2 | x4 c3 _B | cBAG x4 | =B2 c4 B2 | [EG]8 |][M:4/4] x | x8 | x8 | %23
 G2 x2 G2 x2 | G3 [Fc] x4 | x4 (A_BA)[FA] | x4 ([GB]AB)[GB] | [FB]2 x .G G3 .[Gc] | x4 c2 B[ce] | %29
 x7 :: x | x8 | x8 | x8 | x8 | x8 | x8 | f2 e2 d2 c2 | B2 A2 =B2 x2 | G2 x2 G2 x2 | c2 x2 c2 x2 | %41
 c=BcA B c2 B | x5 G2 A | DE F2 x4 :| x ||[K:Eb][M:4/4] x8 | x8 | x8 | x8 | x8 |][K:Eb][M:3/4] x6 | %51
 x6 | x6 | x2 [G-d]4 | [Gc]4 c2 | x6 | G4 =B2 | x6 | x4 d2 | [cg-]6 | g2 f2 .e2 | d4 [Gd]2 | x6 | %63
 c4 [=Ad]2 | x6 | [ce] x [=Bd] x3 | x6 | x2 G4 | G2 x4 | x2 B4 | B2 x4 | x2 c4- | c2 =B2 x2 | %73
 c4 [cdf]2 | x6 :: x6 | c4 G2 | x6 | x6 | c4 B2 | x6 | x6 | x6 | (B4 A2 | G2) x2 d2 | =A2- .A x3 | %86
 x4 f2 | c2- c x3 | x2 .[Fc]2 x2 | A x G x3 | x6 | d4 x2 | x6 | x6 | x6 | x6 | x6 | x2 (G2 F2) | %98
 ^E2 x2 (C2 | C2) x2 (=A2 | .G).F E2 _A2 | G2 (G2 F2) | E2 x2 C2- | C2 x2 (=A2 | .G).F E2 ._A2 | %105
 G2 (G2 F2) | x6 |] %107
V:8
 x8 | x8 | x8 | x8 | x8 | x8 | x8 | x8 | x8 | x8 | x8 | x8 | x8 | x8 | x8 | x8 | x4 (CB,A,)G, | %17
 A,G,F,=E, [F,C]3 [F,,F,] | x8 | C,,8 |][M:4/4] x | x8 | x8 | x8 | x8 | x8 | x8 | x8 | x8 | x7 :: %30
 x | x8 | x8 | x8 | x8 | x8 | x8 | B,2 C2 G,2 A,2 | E,2 F,2 G,2 x2 | x8 | x8 | x8 | x8 | x8 :| x || %45
[K:Eb][M:4/4] x8 | x8 | x8 | x8 | x8 |][K:Eb][M:3/4] x6 | x6 | x6 | x6 | x6 | x6 | x6 | x6 | x6 | %59
 x6 | x6 | x6 | x6 | x6 | x6 | x6 | x6 | x6 | x6 | x6 | x6 | x6 | x6 | x6 | x6 :: x6 | x6 | x6 | %78
 x6 | x6 | x6 | x6 | x6 | x6 | x6 | x6 | x6 | x6 | x6 | x6 | x6 | =B,6 | C6 | x6 | x6 | x6 | x6 | %97
 x6 | x6 | x6 | x6 | x6 | x6 | x6 | x6 | x6 | x6 |] %107

